src/img/svg/share-black.svg

<svg width="29" height="38" viewBox="0 0 29 38" fill="none" xmlns="http://www.w3.org/2000/svg">
<path d="M25.0342 0.462712L8.36751 0.446045C6.53418 0.446045 5.03418 1.94604 5.03418 3.77938V8.77938H8.36751V7.11271H25.0342V30.446H8.36751V28.7794H5.03418V33.7794C5.03418 35.6127 6.53418 37.1127 8.36751 37.1127H25.0342C26.8675 37.1127 28.3675 35.6127 28.3675 33.7794V3.77938C28.3675 1.94604 26.8675 0.462712 25.0342 0.462712ZM11.7008 23.7794H15.0342V12.1127H3.36751V15.446H9.35085L0.0341797 24.7627L2.38418 27.1127L11.7008 17.796V23.7794Z" fill="#333333"/>
</svg>

<svg width="29" height="38" fill="none" xmlns="http://www.w3.org/2000/svg"><path d="M25.034.463L8.368.446a3.343 3.343 0 0 0-3.334 3.333v5h3.334V7.113h16.666v23.333H8.368v-1.667H5.034v5c0 1.834 1.5 3.334 3.334 3.334h16.666c1.834 0 3.334-1.5 3.334-3.334v-30c0-1.833-1.5-3.316-3.334-3.316zM11.701 23.779h3.333V12.113H3.368v3.333H9.35L.034 24.763l2.35 2.35 9.317-9.317v5.983z" fill="#333"/></svg>
